projects/plugins/jetpack/extensions/blocks/blogging-prompt/bloganuary-icon.svg

<svg fill="none" height="20" viewBox="0 0 60 59" width="20" xmlns="http://www.w3.org/2000/svg"><path d="m44.8888 0h-30.4799c-7.93898 0-14.4089 6.82696-14.4089 15.2041v28.5918c0 8.3928 6.46992 15.2041 14.4089 15.2041h30.4799c7.9538 0 14.4089-6.827 14.4089-15.2041v-28.5918c0-8.39279-6.4699-15.2041-14.4089-15.2041zm-15.24 28.263c-1.3355 0-2.4187-1.143-2.4187-2.5523 0-1.4092 1.0832-2.5523 2.4187-2.5523 1.3356 0 2.4189 1.1431 2.4189 2.5523 0 1.4093-1.0833 2.5523-2.4189 2.5523zm1.484 2.8811c2.2407-.689 3.9027-2.8498 3.9027-5.4334 0-3.1316-2.4188-5.6839-5.3867-5.6839-2.9678 0-5.3866 2.5523-5.3866 5.6839 0 2.5836 1.662 4.7444 3.9027 5.4334v11.6497c-2.6265-5.1672-6.1583-8.8469-10.5952-10.9607v-14.797c0-.8925.6826-1.6128 1.5284-1.6128h21.0866c.8459 0 1.5285.7203 1.5285 1.6128v14.9066c-4.5705 2.7402-8.1023 6.4355-10.5804 11.0233zm25.197 12.6518c0 6.6547-5.1343 12.0725-11.441 12.0725h-13.756v-4.8228c2.0033-7.5159 6.2918-13.1685 12.7617-16.8012l.7865-.4384v-16.7699c0-2.6149-2.0181-4.7444-4.4963-4.7444h-21.0717c-2.4782 0-4.4963 2.1295-4.4963 4.7444v16.8952l.9348.3914c5.9209 2.4583 10.1649 8.0953 12.6134 16.7386v4.8071h-13.756c-6.30666 0-11.44105-5.4178-11.44105-12.0725v-28.5918c0-6.65474 5.13439-12.07247 11.44105-12.07247h30.4799c6.3067 0 11.441 5.41773 11.441 12.07247z" fill="#000"/></svg>

<svg
    width="20"
    height="20"
    viewBox="0 0 60 59"
    fill="none"
    xmlns="http://www.w3.org/2000/svg"
>
    <path
        d="M44.8888 0H14.4089C6.46992 0 0 6.82696 0 15.2041V43.7959C0 52.1887 6.46992 59 14.4089 59H44.8888C52.8426 59 59.2977 52.173 59.2977 43.7959V15.2041C59.2977 6.81131 52.8278 0 44.8888 0ZM29.6488 28.263C28.3133 28.263 27.2301 27.12 27.2301 25.7107C27.2301 24.3015 28.3133 23.1584 29.6488 23.1584C30.9844 23.1584 32.0677 24.3015 32.0677 25.7107C32.0677 27.12 30.9844 28.263 29.6488 28.263ZM31.1328 31.1441C33.3735 30.4551 35.0355 28.2943 35.0355 25.7107C35.0355 22.5791 32.6167 20.0268 29.6488 20.0268C26.681 20.0268 24.2622 22.5791 24.2622 25.7107C24.2622 28.2943 25.9242 30.4551 28.1649 31.1441V42.7938C25.5384 37.6266 22.0066 33.9469 17.5697 31.8331V17.0361C17.5697 16.1436 18.2523 15.4233 19.0981 15.4233H40.1847C41.0306 15.4233 41.7132 16.1436 41.7132 17.0361V31.9427C37.1427 34.6829 33.6109 38.3782 31.1328 42.966V31.1441V31.1441ZM56.3298 43.7959C56.3298 50.4506 51.1955 55.8684 44.8888 55.8684H31.1328V51.0456C33.1361 43.5297 37.4246 37.8771 43.8945 34.2444L44.681 33.806V17.0361C44.681 14.4212 42.6629 12.2917 40.1847 12.2917H19.113C16.6348 12.2917 14.6167 14.4212 14.6167 17.0361V33.9313L15.5515 34.3227C21.4724 36.781 25.7164 42.418 28.1649 51.0613V55.8684H14.4089C8.10224 55.8684 2.96785 50.4506 2.96785 43.7959V15.2041C2.96785 8.54936 8.10224 3.13163 14.4089 3.13163H44.8888C51.1955 3.13163 56.3298 8.54936 56.3298 15.2041V43.7959Z"
        fill="black"
    />
</svg>
